public/images/hashed/107ffd935e3809e515669732e645bffe.svg

<svg xmlns="http://www.w3.org/2000/svg" width="80" height="80"><defs><linearGradient id="a" x1="0%" x2="100%" y1="100%" y2="0%"><stop offset="0%" stop-color="#BD0816"/><stop offset="100%" stop-color="#FF5252"/></linearGradient></defs><g fill="none" fill-rule="evenodd"><path fill="url(#a)" d="M0 0h80v80H0z"/><path fill="#FFF" d="M15.5 41a.5.5 0 1 1-.002 1.002A.5.5 0 0 1 15.5 41Zm0 3c1.379 0 2.5-1.122 2.5-2.5S16.879 39 15.5 39a2.503 2.503 0 0 0-2.5 2.5c0 1.378 1.121 2.5 2.5 2.5Zm.5-14.5a.5.5 0 1 1-1.002-.002A.5.5 0 0 1 16 29.5Zm-2 0c0 .827.673 1.5 1.5 1.5s1.5-.673 1.5-1.5-.673-1.5-1.5-1.5-1.5.673-1.5 1.5Zm9.5-7.5a.5.5 0 1 1-.002 1.002A.5.5 0 0 1 23.5 22Zm0 2c.827 0 1.5-.673 1.5-1.5s-.673-1.5-1.5-1.5-1.5.673-1.5 1.5.673 1.5 1.5 1.5ZM20 35.5a.5.5 0 1 1-1.002-.002A.5.5 0 0 1 20 35.5Zm-2 0c0 .827.673 1.5 1.5 1.5s1.5-.673 1.5-1.5-.673-1.5-1.5-1.5-1.5.673-1.5 1.5Zm5.5-7.5c.827 0 1.5.673 1.5 1.5s-.673 1.5-1.5 1.5-1.5-.673-1.5-1.5.673-1.5 1.5-1.5Zm0 5c1.93 0 3.5-1.57 3.5-3.5S25.43 26 23.5 26 20 27.57 20 29.5s1.57 3.5 3.5 3.5Zm-7-14c.827 0 1.5.673 1.5 1.5s-.673 1.5-1.5 1.5-1.5-.673-1.5-1.5.673-1.5 1.5-1.5Zm0 5c1.93 0 3.5-1.57 3.5-3.5S18.43 17 16.5 17 13 18.57 13 20.5s1.57 3.5 3.5 3.5Zm12.207-5.293-1.414-1.414C30.459 14.127 35.581 12 40.039 12c4.413 0 9.504 2.127 12.668 5.293l-1.414 1.414C48.522 15.936 43.896 14 40.039 14c-3.9 0-8.56 1.936-11.332 4.707ZM40.039 17c3.415 0 6.574 1.2 8.668 3.292l-1.414 1.416C45.597 20.012 42.885 19 40.039 19c-2.897 0-5.638 1.012-7.332 2.707l-1.414-1.414C33.354 18.231 36.623 17 40.039 17ZM66 61.384l-1.972.993v-9.368L66 54.498v6.886ZM62.028 66H60V50h2.028v16ZM18 64.771V50h2v16h-2v-1.229Zm-4-3.485v-7.6l2-.772v9.057l-2-.685ZM40 32c5.064 0 9.895 1.937 13.253 5.312C56.338 40.415 58.024 44.563 58 49v17H22l-.001-16.969C22.304 39.322 30.042 32 40 32Zm-2-5c0-1.118 1.088-1.353 2-1.353.912 0 2 .235 2 1.353v3.096A21.79 21.79 0 0 0 40 30c-.677 0-1.344.032-2 .092V27Zm30 26.502-3.972-3V48h-4.071c-.217-4.586-2.059-8.853-5.286-12.098-2.827-2.842-6.584-4.76-10.671-5.526V27c0-2.037-1.57-3.353-4-3.353-2.43 0-4 1.316-4 3.353v3.369C27.251 32.009 20.797 38.988 20.079 48H16v2.77l-4 1.544v10.4l4 1.371V68h48.028v-3.384l3.972-2v-9.114ZM33 46c1.103 0 2 .897 2 2s-.897 2-2 2-2-.897-2-2 .897-2 2-2Zm0 6c2.206 0 4-1.794 4-4s-1.794-4-4-4-4 1.794-4 4 1.794 4 4 4Zm14-6c1.103 0 2 .897 2 2s-.897 2-2 2-2-.897-2-2 .897-2 2-2Zm0 6c2.206 0 4-1.794 4-4s-1.794-4-4-4-4 1.794-4 4 1.794 4 4 4Z"/></g></svg>

<?xml version="1.0" encoding="UTF-8"?>
<svg width="80px" height="80px" viewBox="0 0 80 80" version="1.1" xmlns="http://www.w3.org/2000/svg" xmlns:xlink="http://www.w3.org/1999/xlink">
    <!-- Generator: Sketch 64 (93537) - https://sketch.com -->
    <title>Icon-Architecture/64/Arch_AWS-RoboMaker_64</title>
    <desc>Created with Sketch.</desc>
    <defs>
        <linearGradient x1="0%" y1="100%" x2="100%" y2="0%" id="linearGradient-1">
            <stop stop-color="#BD0816" offset="0%"></stop>
            <stop stop-color="#FF5252" offset="100%"></stop>
        </linearGradient>
    </defs>
    <g id="Icon-Architecture/64/Arch_AWS-RoboMaker_64" stroke="none" stroke-width="1" fill="none" fill-rule="evenodd">
        <g id="Icon-Architecture-BG/64/Robotics" fill="url(#linearGradient-1)">
            <rect id="Rectangle" x="0" y="0" width="80" height="80"></rect>
        </g>
        <path d="M15.5,41 C15.775,41 16,41.224 16,41.5 C16,41.776 15.775,42 15.5,42 C15.225,42 15,41.776 15,41.5 C15,41.224 15.225,41 15.5,41 L15.5,41 Z M15.5,44 C16.879,44 18,42.878 18,41.5 C18,40.122 16.879,39 15.5,39 C14.121,39 13,40.122 13,41.5 C13,42.878 14.121,44 15.5,44 L15.5,44 Z M16,29.5 C16,29.776 15.775,30 15.5,30 C15.225,30 15,29.776 15,29.5 C15,29.224 15.225,29 15.5,29 C15.775,29 16,29.224 16,29.5 L16,29.5 Z M14,29.5 C14,30.327 14.673,31 15.5,31 C16.327,31 17,30.327 17,29.5 C17,28.673 16.327,28 15.5,28 C14.673,28 14,28.673 14,29.5 L14,29.5 Z M23.5,22 C23.775,22 24,22.224 24,22.5 C24,22.776 23.775,23 23.5,23 C23.225,23 23,22.776 23,22.5 C23,22.224 23.225,22 23.5,22 L23.5,22 Z M23.5,24 C24.327,24 25,23.327 25,22.5 C25,21.673 24.327,21 23.5,21 C22.673,21 22,21.673 22,22.5 C22,23.327 22.673,24 23.5,24 L23.5,24 Z M20,35.5 C20,35.776 19.775,36 19.5,36 C19.225,36 19,35.776 19,35.5 C19,35.224 19.225,35 19.5,35 C19.775,35 20,35.224 20,35.5 L20,35.5 Z M18,35.5 C18,36.327 18.673,37 19.5,37 C20.327,37 21,36.327 21,35.5 C21,34.673 20.327,34 19.5,34 C18.673,34 18,34.673 18,35.5 L18,35.5 Z M23.5,28 C24.327,28 25,28.673 25,29.5 C25,30.327 24.327,31 23.5,31 C22.673,31 22,30.327 22,29.5 C22,28.673 22.673,28 23.5,28 L23.5,28 Z M23.5,33 C25.43,33 27,31.43 27,29.5 C27,27.57 25.43,26 23.5,26 C21.57,26 20,27.57 20,29.5 C20,31.43 21.57,33 23.5,33 L23.5,33 Z M16.5,19 C17.327,19 18,19.673 18,20.5 C18,21.327 17.327,22 16.5,22 C15.673,22 15,21.327 15,20.5 C15,19.673 15.673,19 16.5,19 L16.5,19 Z M16.5,24 C18.43,24 20,22.43 20,20.5 C20,18.57 18.43,17 16.5,17 C14.57,17 13,18.57 13,20.5 C13,22.43 14.57,24 16.5,24 L16.5,24 Z M28.707,18.707 L27.293,17.293 C30.459,14.127 35.581,12 40.039,12 C44.452,12 49.543,14.127 52.707,17.293 L51.293,18.707 C48.522,15.936 43.896,14 40.039,14 C36.139,14 31.479,15.936 28.707,18.707 L28.707,18.707 Z M40.039,17 C43.454,17 46.613,18.2 48.707,20.292 L47.293,21.708 C45.597,20.012 42.885,19 40.039,19 C37.142,19 34.401,20.012 32.707,21.707 L31.293,20.293 C33.354,18.231 36.623,17 40.039,17 L40.039,17 Z M66,61.384 L64.028,62.377 L64.028,53.009 L66,54.498 L66,61.384 Z M62.028,66 L60,66 L60,50 L62.028,50 L62.028,65.623 L62.028,66 Z M18,64.771 L18,50 L20,50 L20,66 L18,66 L18,64.771 Z M14,61.286 L14,53.686 L16,52.914 L16,61.971 L14,61.286 Z M40,32 C45.064,32 49.895,33.937 53.253,37.312 C56.338,40.415 58.024,44.563 58.0002527,49 L58.0002527,66 L22,66 L21.999,49.031 C22.304,39.322 30.042,32 40,32 L40,32 Z M38,27 C38,25.882 39.088,25.647 40,25.647 C40.912,25.647 42,25.882 42,27 L42,30.096 C41.338,30.035 40.671,30 40,30 C39.323,30 38.656,30.032 38,30.092 L38,27 Z M68,53.502 L64.028,50.502 L64.028,48 L59.957,48 C59.74,43.414 57.898,39.147 54.671,35.902 C51.844,33.06 48.087,31.142 44,30.376 L44,27 C44,24.963 42.43,23.647 40,23.647 C37.57,23.647 36,24.963 36,27 L36,30.369 C27.251,32.009 20.797,38.988 20.079,48 L16,48 L16,50.77 L12,52.314 L12,62.714 L16,64.085 L16,68 L64.028,68 L64.028,64.616 L68,62.616 L68,53.502 Z M33,46 C34.103,46 35,46.897 35,48 C35,49.103 34.103,50 33,50 C31.897,50 31,49.103 31,48 C31,46.897 31.897,46 33,46 L33,46 Z M33,52 C35.206,52 37,50.206 37,48 C37,45.794 35.206,44 33,44 C30.794,44 29,45.794 29,48 C29,50.206 30.794,52 33,52 L33,52 Z M47,46 C48.103,46 49,46.897 49,48 C49,49.103 48.103,50 47,50 C45.897,50 45,49.103 45,48 C45,46.897 45.897,46 47,46 L47,46 Z M47,52 C49.206,52 51,50.206 51,48 C51,45.794 49.206,44 47,44 C44.794,44 43,45.794 43,48 C43,50.206 44.794,52 47,52 L47,52 Z" id="AWS-RoboMaker_Icon_64_Squid" fill="#FFFFFF"></path>
    </g>
</svg>
